src/assets/duotone/QuoteDownSquare.svg

<svg width="24" height="24" viewBox="0 0 24 24"  xmlns="http://www.w3.org/2000/svg">
<path opacity="0.4" d="M16.1898 2H7.81976C4.17976 2 2.00977 4.17 2.00977 7.81V16.18C2.00977 19.82 4.17976 21.99 7.81976 21.99H16.1898C19.8298 21.99 21.9998 19.82 21.9998 16.18V7.81C21.9998 4.17 19.8298 2 16.1898 2Z" />
<path d="M8.19 16.78H9.68C10.77 16.78 11.62 15.93 11.62 14.84V13.35C11.62 12.26 10.77 11.41 9.68 11.41H7.77C7.85 9.59997 8.27 9.33 9.48 8.62C9.84 8.41 9.95 7.95003 9.74 7.59003C9.6 7.35003 9.35 7.21997 9.09 7.21997C8.96 7.21997 8.83 7.25001 8.71 7.32001C6.92 8.38001 6.25 9.07002 6.25 12.15V14.82C6.25 15.91 7.12 16.78 8.19 16.78Z" />
<path d="M14.3199 16.78H15.8099C16.8999 16.78 17.7499 15.93 17.7499 14.84V13.35C17.7499 12.26 16.8999 11.41 15.8099 11.41H13.8999C13.9799 9.59997 14.3999 9.33 15.6099 8.62C15.9699 8.41 16.0799 7.95003 15.8699 7.59003C15.7299 7.35003 15.4799 7.21997 15.2199 7.21997C15.0899 7.21997 14.9599 7.25001 14.8399 7.32001C13.0499 8.38001 12.3799 9.07002 12.3799 12.15V14.82C12.3899 15.91 13.2599 16.78 14.3199 16.78Z" />
</svg>

<?xml version="1.0" encoding="UTF-8"?>
<svg width="24" height="24" viewBox="0 0 24 24" xmlns="http://www.w3.org/2000/svg">
 <path d="m16.19 2h-8.37c-3.64 0-5.81 2.17-5.81 5.81v8.37c0 3.64 2.17 5.81 5.81 5.81h8.37c3.64 0 5.81-2.17 5.81-5.81v-8.37c0-3.64-2.17-5.81-5.81-5.81z" opacity=".4"/>
 <path d="m8.19 16.78h1.49c1.09 0 1.94-0.85 1.94-1.94v-1.49c0-1.09-0.85-1.94-1.94-1.94h-1.91c0.08-1.81 0.5-2.08 1.71-2.79 0.36-0.21 0.47-0.66997 0.26-1.03-0.14-0.24-0.39-0.37006-0.65-0.37006-0.13 0-0.26 0.03004-0.38 0.10004-1.79 1.06-2.46 1.75-2.46 4.83v2.67c0 1.09 0.87 1.96 1.94 1.96z"/>
 <path d="m14.32 16.78h1.49c1.09 0 1.94-0.85 1.94-1.94v-1.49c0-1.09-0.85-1.94-1.94-1.94h-1.91c0.08-1.81 0.5-2.08 1.71-2.79 0.36-0.21 0.47-0.66997 0.26-1.03-0.14-0.24-0.39-0.37006-0.65-0.37006-0.13 0-0.26 0.03004-0.38 0.10004-1.79 1.06-2.46 1.75-2.46 4.83v2.67c0.01 1.09 0.88 1.96 1.94 1.96z"/>
</svg>
